packages/tokens/icons/blog2/size16Px.svg

<svg viewBox="0 0 16 16" fill="none" xmlns="http://www.w3.org/2000/svg" width="1em" height="1em"><path d="M13.5 3.5V3C13.5 2.17157 12.8284 1.5 12 1.5L4 1.5C3.17157 1.5 2.5 2.17157 2.5 3L2.5 13C2.5 13.8284 3.17157 14.5 4 14.5H12C12.8284 14.5 13.5 13.8284 13.5 13V10.9878" stroke="currentColor" stroke-linecap="round"/><path d="M4.5 4.50024H10.5M4.5 7.50024H7.5M4.5 10.5002H6.5" stroke="currentColor" stroke-linecap="round"/><path d="M13.1365 6.06067C13.3317 5.86541 13.6483 5.86541 13.8436 6.06067L14.2681 6.48526C14.4634 6.68052 14.4634 6.9971 14.2681 7.19236L9.35302 12.1075C9.29393 12.1666 9.22097 12.2099 9.14081 12.2335L8.53882 12.4109C8.15897 12.5229 7.80593 12.1698 7.91787 11.79L8.09528 11.188L7.61741 11.0472L8.09528 11.188C8.1189 11.1078 8.16224 11.0349 8.22133 10.9758L13.1365 6.06067Z" stroke="currentColor"/></svg>

<svg xmlns="http://www.w3.org/2000/svg" fill="none" viewBox="0 0 16 16" width="1em" height="1em"><path stroke="currentColor" stroke-linecap="round" d="M13.5 3.5V3A1.5 1.5 0 0 0 12 1.5H4A1.5 1.5 0 0 0 2.5 3v10A1.5 1.5 0 0 0 4 14.5h8a1.5 1.5 0 0 0 1.5-1.5v-2.012M4.5 4.5h6m-6 3h3m-3 3h2"/><path stroke="currentColor" d="M13.136 6.06a.5.5 0 0 1 .708 0l.424.425a.5.5 0 0 1 0 .707l-4.915 4.915a.5.5 0 0 1-.212.127l-.602.177a.5.5 0 0 1-.621-.621l.177-.602-.478-.14.478.14a.5.5 0 0 1 .126-.212l4.915-4.915Z"/></svg>
